X: 18872
T: In Memory Of Chris Langan
R: reel
M: 4/4
K: Gmajor
|:~E2 GE DEGB|AcBG AGFG|~E2 GE DEGB|AcBG A2 AG|
ABcd eB~B2|gedB AGFG|~E2 GE DEGB|1 AcBA G2 FG:|2 AcBA G2 GA||
|:~B3d eg~g2|agbg agfa|gefd edBd|cABG AGEG|
ABcd eB~B2|gedB AGFG|~E2 GE DEGB|1 AcBA G2 GA:|2 AcBA BAGF||

